**kern	**kern	**dynam
*part1	*part1	*part1
*staff2	*staff1	*
*I"Piano	*	*
*clefF4	*clefG2	*
*k[f#c#]	*k[f#c#]	*
=1	=1	=1
8AL 8e 8g	8cc#`	.
8A 8e 8g	8ee`	.
8A 8e 8g	8cc#`	.
8AJ 8e 8g	8ee`	.
=	=	=
8AL 8d 8f#	8dd`	<
8A 8d 8f#	8ff#`	.
8A 8d 8f#	8dd`	.
8AJ 8d 8f#	8a`	.
=	=	=
8AL 8e 8g	8r	.
8A 8e 8g	8a`	[ mf
8A 8e 8g	8b`	<
8AJ 8e 8g	8cc#`	.
=	=	=
8AL 8d 8f#	8dd`	.
8A 8d 8f#	8ff#`	.
8A 8d 8f#	8aa`	.
8AJ 8d 8f#	8a	[
=	=	=
8AL 8e 8g	8cc#`	.
8A 8e 8g	8ee`	f
8A 8e 8g	8cc#`	>
8AJ 8e 8g	8ee`	.
=	=	=
8AL 8d 8f#	8dd`	.
8A 8d 8f#	8ff#`	.
8A 8d 8f#	8dd`	.
8AJ 8d 8f#	8a`	]]
*	*clefF4	*
=	=	=
8AL 8e 8g	8r	mp
8A 8e 8g	8AA`	<
8A 8e 8g	8BB`	.
8AJ 8e 8g	8C#`	.
=	=	=
4d 4f#	4D	.
*	*clefG2	*
4D 4A	4f# 4dd	[[
=	=	=
[4D [4A	[4f# [4dd	f
4D] 4A]	4f#] 4dd]	.
=:|!	=:|!	=:|!
2Dyy 2A	2f#yy 2dd	f
=	=	=
*-	*-	*-
!!!system-decoration: {(s1,s2)}
